%
O10007
(TEAM MACHINE ENGRAVING)
(T 1 = 1in face mill)
(T 2 = .5 END MILL)
(T 3 = )
(PART ZERO IS THE LOWER LEFT CORNER)

N5 G00 G17 G40 G49 G54 G80 G90 G98 (SAFESTARTBLOCK MILL)
N10 G53 Z0. (ZAXIS HOME)
N15 T1 M06 (TOOL NUMBER + TOOL CHANGE CODE)
N20 S4500 M03 (SPINDLE SPEED + SPINDLE ON CW)
N25 G43 H01 (HEIGHT OFFSET ON)

N30 G54 G00 X-.75 Y.375 (LOCATE TO START POSITION)
N35 Z1. M08 (INITIAL CLEARANCE HEIGHT & COOLANT ON)

N40 G01 Z0. F10. (LINEAR FEED TO DEPTH)
N45 X3.5 Y.375 F80. (LINEAR FEED)
N50 X3.5 Y1.25
N55 X-.5 Y1.25
N60 X-.5 Y2.125
N65 X3.5 Y2.125
N70 X3.5 Y3.
N75 X-.5 Y3.

N80 G00 Z1. M09 (RAPID Z TO 1. COOLANT OFF)
N85 G53 G49 Z0.

N90 T2 M06
N95 G43 H02
N100 M03 S3200

N105 G00 Z.25

(T)
N110 G00 Z.125
N115 G90 X.6 Y1.7
N120 G01 Z-.005 F5.
N125 G91 X.500 F10.
N130 Y-.100
N135 X-.200
N140 Y-.400
N145 X-.100
N150 Y.400
N155 X-.200
N160 Y.100

(E)
N165 G00 Z.125
N170 G90 X1.2 Y1.7
N175 G01 Z-.005 F5.
N180 G91 X.300 F10.
N185 Y-.100
N190 X-.200
N195 Y-.100
N200 X.100
N205 Y-.100
N210 X-.100
N215 Y-.100
N220 X.200
N225 Y-.100
N230 X-.300
N235 Y.500

(A)
N240 G00 Z.125
N245 G90 X1.6 Y1.7
N250 G01 Z-.005 F5.
N255 G91 X.300 F10
N260 Y-.500
N265 X-.100
N270 Y.200
N275 X-.100
N280 Y-.200
N285 X-.100
N290 Y.500
N295 G00 Z.125
(A-CENTER)
N300 X.100 Y-.100
N305 G90 G01 Z-.005 F5.
N310 G91 X.1 F10.
N315 Y-.100
N320 X-.100
N325 Y.100

(M)
N330 G00 Z.125
N335 G90 X2.0 Y1.7
N340 G01 Z-.005 F5.
N345 G91 X.1 F10.
N350 X.100 Y-.200
N355 X.100 Y.200
N360 X.100
N365 Y-.500
N370 X-.100
N375 Y.300
N380 X-.100 Y-.200
N385 X-.100 Y.200
N390 Y-.300
N395 X-.100
N400 Y.500

(M)
N405 G00 Z.125
N410 G90 X.200 Y.900
N415 G01 Z-.005 F5.
N420 G91 X.1 F10.
N425 X.100 Y-.200
N430 X.100 Y.200
N435 X.100
N440 Y-.500
N445 X-.100
N450 Y.300
N455 X-.100 Y-.200
N460 X-.100 Y.200
N465 Y-.300
N470 X-.100
N475 Y.500

(A)
N480 G00 Z.125
N485 G90 X.700 Y.900
N490 G01 Z-.005 F5.
N495 G91 X.300 F10.
N500 Y-.500
N505 X-.100
N510 Y.200
N515 X-.100
N520 Y-.200
N525 X-.100
N530 Y.500
N535 G00 Z.125
(A-CENTER)
N540 X.100 Y-.100
N545 G90 G01 Z-.005 F5.
N550 G91 X.1 F10
N555 Y-.100
N560 X-.100
N565 Y.100

(C)
N570 G00 Z.125
N575 G90 X1.1 Y.900
N580 G01 Z-.005 F5.
N585 G91 X.300 F10.
N590 Y-.100
N595 X-.200
N600 Y-.300
N605 X.200
N610 Y-.100
N615 X-.300
N620 Y.500

(H)
N625 G00 Z.125
N630 G90 X1.5 Y.900
N635 G01 Z-.005 F5.
N640 G91 X.100 F10.
N645 Y-.200
N650 X.100
N655 Y.200
N660 X.100
N665 Y-.500
N670 X-.100
N675 Y.200
N680 X-.100
N685 Y-.200
N690 X-.100
N695 Y.500

(I)
N700 G00 Z.125
N705 G90 X1.9 Y.900
N710 G01 Z-.005 F5.
N715 G91 X.100 F10.
N720 Y-.500
N725 X-.100
N730 Y.500

(N)
N735 G00 Z.125
N740 G90 X2.1 Y.900
N745 G01 Z-.005 F5.
N750 G91 X.1 F10.
N755 X.100 Y-.250
N760 Y.250
N765 X.100
N770 Y-.500
N775 X-.100
N780 X-.100 Y.250
N785 Y-.250
N790 X-.100
N795 Y.500

(E)
N800 G00 Z.125
N805 G90 X2.5 Y.900
N810 G01 Z-.005 F5.
N815 G91 X.3 F10.
N820 Y-.100
N825 X-.200
N830 Y-.100
N835 X.100
N840 Y-.100
N845 X-.100
N850 Y-.100
N855 X.200
N860 Y-.100
N865 X-.300
N870 Y.500

(FINISH)
N875 G00 G90 Z1. M09
N880 G53 G49 Z0
N885 M5
N890 G53 Y0. A0.
N895 M30
%
