
%
O58213 
(CALIPER DEPTH ATTACHMENT THUMBSCREW) 
G18 G40 G54 G80 G99 (SAFE START BLOCK LATHE) 
G50 S1600 (SPINDLE SPEED LIMIT) 
G00 T101 (TOOL 1 OFFSET 1) 
G96 S1000 M03 (CONSTANT SURFACE SPEED ON, SPINDLE ON CW) 
G00 X2. Z0.1 (RAPID TO START POSITION) 
M08 

G00 X2. 
G71 P45 Q55 U0.01 W0 D0.025 F0.02 (ROUGHING CYCLE) 

N45 G00 X1. Z0.1 (START AT STOCK OD) 
N46 G01 Z0. 
N47 G01 X0.2 
N48 G01 X0.244 Z-0.044 
N49 G01 Z-0.4 
N50 G01 X0.428 
N51 G01 X0.438 Z-0.41 
N52 G01 Z-0.513 
N53 G01 X0.6 
N54 G01 X0.62 Z-0.533 
N55 G01 Z-0.9 

G50 S2200 
G96 S1600 M03 

G00 X2. 

(FINISH PASS) 
G70 P45 Q55 U0 W0 D0.01 F0.004 

(RAPID FOR TOOL CHANGE) 
G00 X3. 
G00 Z3. 
T202 (GROOVING TOOL) 

(RAPID TO GROOVE START) 
G00 X0.5 
G00 Z-0.25 

(1000 MAX RPM 500 SFM) 
G50 S1000 
G96 S500 M03 

(O.D GROOVING CYCLE) 
G75 X0.195 Z-0.15 I0.01 K0.01 F0.005 M08 

G00 X3. 
G00 Z3. 

T303 (THREADING TOOL) 

G00 X0.25 
G00 Z0.1 

G76 X0.2 Z-0.25 K0.044 D0.01 F0.05 

(ENDPROGRAM) 
N2050 G00 X3. Z4. (RETRACTTOSAFEPOSITION) 
N2100 M09 (COOLANTOFF) 
N2150 G97 (CANCELCONSTANTSURFACE SPEED) 
N2200 M05 (SPINDLEOFF) 
N2250 G00 G53 X0 Z-2. (RETURNTOMACHINEHOME) 
N2300 M30 (PROGRAMEND) 
%
