%

O58212
(L8-Ex1 Lathe part)
N5 G18 G40 G54 G80 G99 (SAFE START BLOCK LATHE)

N10 G50 S1800 (SPINDLE SPEED LIMIT)
N15 G00 T101 (TOOL 1 OFFSET 1)
N20 G96 S800 M03 (CONSTANT SURFACE SPEED ON, SPINDLE ON CW)
N25 G00 X2.0 Z0.1 (RAPID TO START POSITION)
N30 M08

N40 G71 P45 Q60 U0 W0 D.025 F0.01

N45 G00 X1.1 (END DIAMETER POSITION)
N50 G01 Z0.
N55 Z-1.35
N60 X1.25 (STOCK DIAMETER)

N65 G00 X1.5
N70 G00 Z3. (RAPID TO CLEARANCE FOR TOOL CHANGE)

N75 T202
N80 G50 S1200
N85 G96 S200 M03

(GROVE 1)
G00 X1.3
Z-.125 (START OF GROOVE)
G75 X.800 Z-.325 I0.1 K0.2 F0.0002

(GROVE 1)
G00 X1.3
Z-.500 (START OF GROOVE)
G75 X.850 Z-.700 I0.1 K0.2 F0.0002

(GROVE 1)
G00 X1.3
Z-.875 (START OF GROOVE)
G75 X.730 Z-1.075 I0.1 K0.2 F0.0002



(ENDPROGRAM)
N2050 G00 X4.0 Z4.0 (RETRACTTOSAFEPOSITION)
N2100 M09 (COOLANTOFF)
N2150 G97 (CANCELCONSTANTSURFACE SPEED)
N2200 M05 (SPINDLEOFF)
N2250 G00 G53 X0 Z0 (RETURNTOMACHINEHOME)
N2300 M30 (PROGRAMEND)

%