
%
O58215 
(SNOWMAN) 
G18 G40 G80 G99 (SAFE START BLOCK LATHE) 
G50 S1600 (SPINDLE SPEED LIMIT) 
G00 T101 (TOOL 1 OFFSET 1) 
G96 S1000 M03 (CONSTANT SURFACE SPEED ON, SPINDLE ON CW) 
G00 X5. Z0.1 (RAPID TO START POSITION) 
M08 
M21 
G04 P3. (WAIT FOR TAILSTOCK) 

G00 X2. 
G71 P45 Q58 U0.01 W0.005 D0.025 F0.01 (ROUGHING CYCLE - Q updated to N58)

(PROFILE START)
N45 G00 X0.0 Z0.0 

(1. BOTTOM SPHERE - X1.5 diameter, R0.75)
G01 X1.5 Z0.0 
G71 P45 Q55 U0.01 W0.005 D0.025 F0.01 

(PROFILE START)
N45 G00 X0.0 Z0.0 
G71 P45 Q55 U0.01 W0.005 D0.025 F0.01 

(PROFILE START)
N45 G00 X0.0 Z0.0 
G01 X0.0 Z0.0 (FACE END AND START AT MAX DIAMETER X1.5)

(1. BOTTOM CURVE: Tapers from X1.5 to X0.8)
(Use a very large radius to make a shallow, smooth curve)
G03 X0.5 Z-1.0 R0.55

(2. MIDDLE CURVE: Blends from X0.8 to X0.5)
G03 X0.25 Z-1.5 R0.34

(3. HEAD CURVE: Blends from X0.5 to X0.3)
G03 X0.0 Z-1.8 R0.2

(TIP)
G01 X0.0 Z-2.0 (Move to the final center point for the nose/tip)

(PROFILE END)
N55 G01 X1.8 Z-2.0 (MOVE TO CLEARANCE DIAMETER)


(ENDPROGRAM) M22 
N2050 G00 X3. 
Z4. (RETRACTTOSAFEPOSITION) 
N2100 M09 (COOLANTOFF) 
N2150 G97 (CANCELCONSTANTSURFACE SPEED) 
N2200 M05 (SPINDLEOFF) 
N2250 G00 G53 X0 Z-2. (RETURNTOMACHINEHOME) 
N2300 M30 (PROGRAMEND) 