%
O58214 
(BORED PART) 
G18 G40 G80 G99 (SAFE START BLOCK LATHE) 
G50 S1600 (SPINDLE SPEED LIMIT) 
G00 T101 (TOOL 1 OFFSET 1) 
G96 S1000 M03 (CONSTANT SURFACE SPEED ON, SPINDLE ON CW) 
G00 X5. Z0.1 (RAPID TO START POSITION) 
M08 
M21 
G04 P3. (WAIT FOR TAILSTOCK) 

G00 X2. 
G71 P45 Q49 U0.01 W0 D0.025 F0.02 (ROUGHING CYCLE) 

N45 G00 X1.250 Z0.100 (START AT STOCK OD)
N46 G01 Z0.000
N47 G01 X1.000
N48 G01 Z-5.2 
N49 G01 X1.25 

G00 X3. 

T202 
G50 S2400 
G96 S1600 M03 

G00 Z0.1 
X2. 

G70 P45 Q49 U0.009 D0.01 F0.005 

(ENDPROGRAM) M22 
N2050 G00 X3. 
Z4. (RETRACTTOSAFEPOSITION) 
N2100 M09 (COOLANTOFF) 
N2150 G97 (CANCELCONSTANTSURFACE SPEED) 
N2200 M05 (SPINDLEOFF) 
N2250 G00 G53 X0 Z-2. (RETURNTOMACHINEHOME) 
N2300 M30 (PROGRAMEND) 

%